!!!OTL: Der schwatzhafte Junggeselle Es sassen der Bursche viere, viere
!!!ARE: Europa, Osteuropa, UdSSR, Balkan
!!!YOR: 6, S. 270
!!    1937 gedruckt
!!!SCT: Q0139
!!!YEM: Copyright 1995, estate of Helmut Schaffrath.
**kern
*ICvox
*Ivox
*M4/4
*k[b-]
*F:
{4c
=1
4f
8e
8d
4c
4b-
=2
4b-
4a
4dd
8cc}
{8c
=3
4f
8e
8d
4c
4b-
=4
4b-
4a
4dd
8cc}
{8cc
=5
8.a
16cc
8cc
8cc
4cc
8cc
8cc
=6
8dd
8cc
8b-
8a
4.g}
{8cc
=7
8c
8c
8c
8c
4cc
8cc
8cc
=8
8cc
8b-
8a
8g
4f}
==
!!!AGN: Ballade, Indiskretion, verweigerter Beischlaf; Studenten - Lied
!! Schlusspause weggelassen.
!!!ONB: ESAC (Essen Associative Code) Database: BALLADE
!!!AMT: simple quadruple
!!!AIN: vox
!!!EED: Helmut Schaffrath
!!!EEV: 1.0
*-
